; generated by Slic3r 1.1.7 on 2015-02-19 at 19:19:57

; perimeters extrusion width = 0.40mm
; infill extrusion width = 0.42mm
; solid infill extrusion width = 0.42mm
; top infill extrusion width = 0.42mm

G21 ; set units to millimeters
M107
;M104 S180,180 ; hot end
;M140 S50 ; hot bed;
;M109; wait till hot
;M190; wait till hot
G90 ; use absolute coordinates
G92 E0
M82 ; use absolute distances for extrusion
M204 S2000
G1 Z0.400 F8400.000
;
G1 F3600.000 E-2.00000
G92 E0
G1 X111.850 Y117.891 F8400.000
G1 E2.00000 F3600.000
G1 X111.999 Y117.763 E2.01305 F600.000
G1 X112.111 Y117.846 E2.02236
G1 X112.268 Y117.994 E2.03672 F600.000
G1 X112.140 Y118.139 E2.04957
G1 X111.998 Y118.246 E2.06139
G1 X111.865 Y118.135 E2.07294
G1 X111.760 Y118.009 E2.08385
G1 X111.813 Y117.939 E2.08973
G1 X112.146 Y118.059 F8400.000
G1 X110.252 Y118.011 F8400.000
G1 X110.138 Y118.141 E2.10121 F600.000
G1 X110.003 Y118.247 E2.11266
G1 X109.875 Y118.141 E2.12372
G1 X109.759 Y118.010 E2.13538
G1 X109.849 Y117.892 E2.14523
G1 X110.002 Y117.764 E2.15854
G1 X110.129 Y117.862 E2.16921
G1 X110.215 Y117.964 E2.17807 F600.000
G1 X110.189 Y117.981 F8400.000
G1 X110.003 Y116.248 F8400.000
G1 X109.748 Y116.005 E2.20147 F600.000
G1 X110.003 Y115.760 E2.22505
G1 X110.125 Y115.860 E2.23558
G1 X110.266 Y116.002 E2.24887 F600.000
G1 X110.050 Y116.211 E2.26885
G1 X109.932 Y115.911 F8400.000
G1 X111.736 Y115.992 F8400.000
G1 X112.013 Y115.747 E2.29342 F600.000
G1 X112.268 Y116.002 E2.31740
G1 X112.115 Y116.162 E2.33213 F600.000
G1 X111.997 Y116.246 E2.34180
G1 X111.777 Y116.036 E2.36203
G1 X112.111 Y116.158 F8400.000
G1 X113.735 Y116.001 F8400.000
G1 X114.006 Y115.747 E2.38673 F600.000
G1 X114.273 Y116.002 E2.41133
G1 X114.002 Y116.256 E2.43601 F600.000
G1 X113.778 Y116.044 E2.45655
G1 X114.189 Y115.641 F8400.000
G1 X115.738 Y116.002 F8400.000
G1 X116.001 Y115.742 E2.48113 F600.000
G1 X116.281 Y116.006 E2.50673
G1 X116.003 Y116.255 E2.53156 F600.000
G1 X115.780 Y116.044 E2.55198
G1 X116.205 Y115.641 F8400.000
G1 F3600.000 E0.55198
G92 E0
G1 X117.813 Y114.076 F8400.000
G1 E2.00000 F3600.000
G1 X117.746 Y114.007 E2.00637 F600.000
G1 X117.893 Y113.850 E2.02071
G1 X118.010 Y113.763 E2.03044
G1 X118.113 Y113.848 E2.03936
G1 X118.266 Y114.010 E2.05413 F600.000
G1 X118.013 Y114.249 E2.07729
G1 X117.854 Y114.119 E2.09089
G1 X118.204 Y114.051 F8400.000
G1 X116.268 Y114.014 F8400.000
G1 X116.004 Y114.262 E2.11498 F600.000
G1 X115.736 Y114.007 E2.13959
G1 X116.005 Y113.742 E2.16467
G1 X116.158 Y113.893 E2.17894
G1 X116.228 Y113.970 E2.18588 F600.000
G1 X116.207 Y113.985 F8400.000
G1 X116.004 Y112.262 F8400.000
G1 X115.738 Y112.012 E2.21023 F600.000
G1 X116.006 Y111.754 E2.23501
G1 X116.131 Y111.864 E2.24606
G1 X116.267 Y112.023 E2.25998 F600.000
G1 X116.048 Y112.221 E2.27963
G1 X115.925 Y111.902 F8400.000
G1 X114.271 Y112.014 F8400.000
G1 X114.007 Y112.263 E2.30375 F600.000
G1 X113.742 Y112.019 E2.32771
G1 X113.862 Y111.881 E2.33988
G1 X114.007 Y111.754 E2.35269
G1 X114.128 Y111.862 E2.36348
G1 X114.230 Y111.970 E2.37338 F600.000
G1 X114.200 Y111.992 F8400.000
G1 X112.269 Y112.013 F8400.000
G1 X112.013 Y112.262 E2.39711 F600.000
G1 X111.744 Y112.012 E2.42155
G1 X111.998 Y111.762 E2.44520
G1 X112.112 Y111.846 E2.45462
G1 X112.228 Y111.969 E2.46592 F600.000
G1 X112.194 Y111.995 F8400.000
G1 X112.011 Y113.743 F8400.000
G1 X112.268 Y114.005 E2.49037 F600.000
G1 X112.110 Y114.166 E2.50535 F600.000
G1 X111.994 Y114.248 E2.51481
G1 X111.743 Y114.006 E2.53808
G1 X111.967 Y113.784 E2.55906
G1 X112.074 Y114.119 F8400.000
G1 X113.732 Y114.004 F8400.000
G1 X114.006 Y113.742 E2.58425 F600.000
G1 X114.272 Y114.008 E2.60927
G1 X114.008 Y114.267 E2.63387 F600.000
G1 X113.776 Y114.045 E2.65528
G1 X114.179 Y113.650 F8400.000
G1 F3600.000 E0.65528
G92 E0
G1 X110.261 Y114.004 F8400.000
G1 E2.00000 F3600.000
G1 X110.005 Y114.254 E2.02379 F600.000
G1 X109.743 Y114.007 E2.04776
G1 X110.004 Y113.765 E2.07141
G1 X110.123 Y113.858 E2.08146
G1 X110.220 Y113.961 E2.09089 F600.000
G1 X110.191 Y113.982 F8400.000
G1 X110.004 Y112.250 F8400.000
G1 X109.744 Y112.012 E2.11435 F600.000
G1 X110.001 Y111.762 E2.13815
G1 X110.104 Y111.843 E2.14684
G1 X110.261 Y112.013 E2.16227 F600.000
G1 X110.051 Y112.212 E2.18153
G1 X109.877 Y111.894 F8400.000
G1 X110.004 Y110.249 F8400.000
G1 X109.856 Y110.124 E2.19437 F600.000
G1 X109.757 Y110.003 E2.20480
G1 X109.999 Y109.761 E2.22755
G1 X110.130 Y109.863 E2.23861
G1 X110.252 Y110.008 E2.25121 F600.000
G1 X110.050 Y110.210 E2.27025
G1 X109.944 Y109.897 F8400.000
G1 X111.761 Y110.006 F8400.000
G1 X111.861 Y109.879 E2.28101 F600.000
G1 X112.000 Y109.764 E2.29303
G1 X112.111 Y109.846 E2.30222
G1 X112.258 Y110.006 E2.31666 F600.000
G1 X112.012 Y110.260 E2.34017
G1 X111.798 Y110.053 E2.35997
G1 X112.199 Y110.044 F8400.000
G1 X113.760 Y110.003 F8400.000
G1 X113.859 Y109.883 E2.37027 F600.000
G1 X114.006 Y109.753 E2.38337
G1 X114.149 Y109.881 E2.39614
G1 X114.252 Y109.998 E2.40653 F600.000
G1 X114.161 Y110.115 E2.41644
G1 X114.009 Y110.261 E2.43044
G1 X113.797 Y110.050 E2.45032
G1 X114.204 Y110.027 F8400.000
G1 X115.749 Y110.002 F8400.000
G1 X116.001 Y109.749 E2.47408 F600.000
G1 X116.152 Y109.882 E2.48744
G1 X116.247 Y110.004 E2.49775 F600.000
G1 X116.154 Y110.122 E2.50775
G1 X116.004 Y110.256 E2.52114
G1 X115.789 Y110.048 E2.54107
G1 X116.200 Y110.029 F8400.000
G1 X117.757 Y110.001 F8400.000
G1 X117.893 Y109.851 E2.55453 F600.000
G1 X118.010 Y109.761 E2.56438
G1 X118.146 Y109.874 E2.57609
G1 X118.249 Y110.004 E2.58714 F600.000
G1 X118.150 Y110.128 E2.59773
G1 X118.009 Y110.246 E2.60997
G1 X117.891 Y110.156 E2.61981
G1 X117.795 Y110.047 E2.62950
G1 X118.179 Y110.036 F8400.000
G1 X118.009 Y108.246 F8400.000
G1 X117.890 Y108.157 E2.63937 F600.000
G1 X117.744 Y107.994 E2.65394
G1 X118.009 Y107.763 E2.67737
G1 X118.147 Y107.877 E2.68926
G1 X118.254 Y108.014 E2.70085 F600.000
G1 X118.055 Y108.208 E2.71933
G1 X117.974 Y107.901 F8400.000
G1 X116.250 Y108.011 F8400.000
G1 X116.151 Y108.130 E2.72962 F600.000
G1 X115.998 Y108.253 E2.74268
G1 X115.737 Y107.994 E2.76716
G1 X116.002 Y107.751 E2.79111
G1 X116.162 Y107.893 E2.80535
G1 X116.214 Y107.963 E2.81115 F600.000
G1 X116.198 Y107.972 F8400.000
G1 X114.273 Y107.996 F8400.000
G1 X114.007 Y108.260 E2.83609 F600.000
G1 X113.870 Y108.138 E2.84832
G1 X113.741 Y107.987 E2.86150
G1 X113.961 Y107.792 E2.88104
G1 X113.947 Y108.181 F8400.000
G1 X112.268 Y107.994 F8400.000
G1 X112.140 Y108.139 E2.89388 F600.000
G1 X111.998 Y108.246 E2.90571
G1 X111.865 Y108.135 E2.91726
G1 X111.760 Y108.009 E2.92817
G1 X111.850 Y107.891 E2.93804
G1 X111.999 Y107.763 E2.95109
G1 X112.111 Y107.846 E2.96040
G1 X112.225 Y107.953 E2.97077 F600.000
G1 X112.192 Y107.980 F8400.000
G1 X110.252 Y108.011 F8400.000
G1 X110.138 Y108.141 E2.98225 F600.000
G1 X110.003 Y108.247 E2.99371
G1 X109.875 Y108.141 E3.00476
G1 X109.759 Y108.010 E3.01642
G1 X109.849 Y107.892 E3.02627
G1 X110.002 Y107.764 E3.03958
G1 X110.129 Y107.862 E3.05025
G1 X110.215 Y107.964 E3.05911 F600.000
G1 X110.189 Y107.981 F8400.000
G1 X110.003 Y106.248 F8400.000
G1 X109.748 Y106.005 E3.08251 F600.000
G1 X110.003 Y105.760 E3.10609
G1 X110.125 Y105.860 E3.11662
G1 X110.266 Y106.002 E3.12991 F600.000
G1 X110.050 Y106.211 E3.14989
G1 X109.932 Y105.911 F8400.000
G1 X111.736 Y105.992 F8400.000
G1 X112.013 Y105.747 E3.17446 F600.000
G1 X112.268 Y106.002 E3.19844
G1 X112.115 Y106.162 E3.21317 F600.000
G1 X111.997 Y106.246 E3.22284
G1 X111.777 Y106.036 E3.24307
G1 X112.111 Y106.158 F8400.000
G1 X113.735 Y106.001 F8400.000
G1 X114.006 Y105.747 E3.26777 F600.000
G1 X114.273 Y106.002 E3.29237
G1 X114.002 Y106.256 E3.31705 F600.000
G1 X113.778 Y106.044 E3.33759
G1 X114.189 Y105.641 F8400.000
G1 X115.738 Y106.002 F8400.000
G1 X116.001 Y105.742 E3.36217 F600.000
G1 X116.281 Y106.006 E3.38777
G1 X116.003 Y106.255 E3.41260 F600.000
G1 X115.780 Y106.044 E3.43302
G1 X116.205 Y105.641 F8400.000
G1 X117.747 Y106.004 F8400.000
G1 X118.009 Y105.756 E3.45705 F600.000
G1 X118.142 Y105.873 E3.46888
G1 X118.269 Y106.007 E3.48116 F600.000
G1 X118.009 Y106.246 E3.50462
G1 X117.891 Y106.158 E3.51443
G1 X117.788 Y106.048 E3.52447
G1 X118.190 Y106.052 F8400.000
G1 F3600.000 E1.52447
G92 E0
G1 X116.268 Y104.014 F8400.000
G1 E2.00000 F3600.000
G1 X116.004 Y104.262 E2.02409 F600.000
G1 X115.736 Y104.007 E2.04870
G1 X116.005 Y103.742 E2.07378
G1 X116.158 Y103.893 E2.08805
G1 X116.228 Y103.970 E2.09498 F600.000
G1 X116.207 Y103.985 F8400.000
G1 F3600.000 E0.09498
G92 E0
G1 X114.271 Y102.014 F8400.000
G1 E2.00000 F3600.000
G1 X114.007 Y102.263 E2.02412 F600.000
G1 X113.742 Y102.019 E2.04809
G1 X113.862 Y101.881 E2.06025
G1 X114.007 Y101.754 E2.07306
G1 X114.128 Y101.862 E2.08385
G1 X114.230 Y101.970 E2.09375 F600.000
G1 X114.200 Y101.992 F8400.000
G1 X112.269 Y102.013 F8400.000
G1 X112.013 Y102.262 E2.11748 F600.000
G1 X111.744 Y102.012 E2.14192
G1 X111.998 Y101.762 E2.16557
G1 X112.112 Y101.846 E2.17499
G1 X112.228 Y101.969 E2.18629 F600.000
G1 X112.194 Y101.995 F8400.000
G1 X110.261 Y102.013 F8400.000
G1 X110.004 Y102.250 E2.20954 F600.000
G1 X109.744 Y102.012 E2.23300
G1 X110.001 Y101.762 E2.25679
G1 X110.104 Y101.843 E2.26548
G1 X110.221 Y101.968 E2.27693 F600.000
G1 X110.187 Y101.993 F8400.000
G1 X110.004 Y103.765 F8400.000
G1 X110.123 Y103.858 E2.28697 F600.000
G1 X110.261 Y104.004 E2.30040 F600.000
G1 X110.005 Y104.254 E2.32420
G1 X109.743 Y104.007 E2.34816
G1 X109.957 Y103.802 E2.36784
G1 X110.144 Y104.058 F8400.000
G1 X111.743 Y104.006 F8400.000
G1 X112.011 Y103.743 E2.39282 F600.000
G1 X112.268 Y104.005 E2.41727
G1 X112.110 Y104.166 E2.43224 F600.000
G1 X111.994 Y104.248 E2.44170
G1 X111.785 Y104.048 E2.46098
G1 X112.107 Y104.162 F8400.000
G1 X113.732 Y104.004 F8400.000
G1 X114.006 Y103.742 E2.48617 F600.000
G1 X114.272 Y104.008 E2.51118
G1 X114.008 Y104.267 E2.53578 F600.000
G1 X113.776 Y104.045 E2.55720
G1 X114.179 Y103.650 F8400.000
G1 F3600.000 E0.55720
G92 E0
G1 X108.266 Y104.010 F8400.000
G1 E2.00000 F3600.000
G1 X108.013 Y104.249 E2.02316 F600.000
G1 X107.895 Y104.161 E2.03289
G1 X107.746 Y104.007 E2.04716
G1 X107.893 Y103.850 E2.06150
G1 X108.010 Y103.763 E2.07123
G1 X108.113 Y103.848 E2.08015
G1 X108.225 Y103.966 E2.09093 F600.000
G1 X108.192 Y103.990 F8400.000
G1 X106.268 Y104.014 F8400.000
G1 X106.004 Y104.262 E2.11502 F600.000
G1 X105.736 Y104.007 E2.13963
G1 X106.005 Y103.742 E2.16471
G1 X106.158 Y103.893 E2.17897
G1 X106.228 Y103.970 E2.18591 F600.000
G1 X106.207 Y103.985 F8400.000
G1 X106.001 Y105.742 F8400.000
G1 X106.281 Y106.006 E2.21151 F600.000
G1 X106.003 Y106.255 E2.23634 F600.000
G1 X105.738 Y106.002 E2.26075
G1 X105.959 Y105.785 E2.28134
G1 X105.951 Y106.180 F8400.000
G1 X104.273 Y106.002 F8400.000
G1 X104.002 Y106.256 E2.30602 F600.000
G1 X103.735 Y106.001 E2.33055
G1 X103.962 Y105.788 E2.35126
G1 X103.948 Y106.181 F8400.000
G1 X102.268 Y106.002 F8400.000
G1 X102.115 Y106.162 E2.36599 F600.000
G1 X101.997 Y106.246 E2.37567
G1 X101.736 Y105.992 E2.39988
G1 X101.968 Y105.787 E2.42046
G1 X102.077 Y106.114 F8400.000
G1 F3600.000 E0.42046
G92 E0
G1 X103.920 Y104.183 F8400.000
G1 E2.00000 F3600.000
G1 X103.732 Y104.004 E2.01725 F600.000
G1 X104.006 Y103.742 E2.04244
G1 X104.272 Y104.008 E2.06745
G1 X104.008 Y104.267 E2.09206 F600.000
G1 X103.963 Y104.224 E2.09621
G1 X104.179 Y103.650 F8400.000
G1 F3600.000 E0.09621
G92 E0
G1 X105.738 Y102.012 F8400.000
G1 E2.00000 F3600.000
G1 X106.006 Y101.754 E2.02478 F600.000
G1 X106.131 Y101.864 E2.03583
G1 X106.267 Y102.023 E2.04975 F600.000
G1 X106.004 Y102.262 E2.07339
G1 X105.781 Y102.053 E2.09375
G1 X106.206 Y102.059 F8400.000
G1 X107.747 Y102.013 F8400.000
G1 X107.889 Y101.854 E2.10792 F600.000
G1 X108.011 Y101.761 E2.11816
G1 X108.136 Y101.869 E2.12912
G1 X108.250 Y101.998 E2.14061 F600.000
G1 X108.168 Y102.111 E2.14990
G1 X108.010 Y102.251 E2.16391
G1 X107.789 Y102.056 E2.18355
G1 X108.199 Y102.029 F8400.000
G1 F3600.000 E0.18355
G92 E0
G1 X108.009 Y105.756 F8400.000
G1 E2.00000 F3600.000
G1 X108.142 Y105.873 E2.01182 F600.000
G1 X108.269 Y106.007 E2.02411 F600.000
G1 X108.009 Y106.246 E2.04757
G1 X107.891 Y106.158 E2.05738
G1 X107.747 Y106.004 E2.07141
G1 X107.962 Y105.794 E2.09146
G1 X108.158 Y106.057 F8400.000
G1 X108.009 Y107.763 F8400.000
G1 X108.147 Y107.877 E2.10336 F600.000
G1 X108.254 Y108.014 E2.11495 F600.000
G1 X108.009 Y108.246 E2.13741
G1 X107.890 Y108.157 E2.14728
G1 X107.744 Y107.994 E2.16186
G1 X107.962 Y107.799 E2.18130
G1 X108.149 Y108.051 F8400.000
G1 X106.250 Y108.011 F8400.000
G1 X106.151 Y108.130 E2.19159 F600.000
G1 X105.998 Y108.253 E2.20465
G1 X105.737 Y107.994 E2.22912
G1 X106.002 Y107.751 E2.25307
G1 X106.162 Y107.893 E2.26731
G1 X106.214 Y107.963 E2.27312 F600.000
G1 X106.198 Y107.972 F8400.000
G1 X104.273 Y107.996 F8400.000
G1 X104.007 Y108.260 E2.29806 F600.000
G1 X103.870 Y108.138 E2.31028
G1 X103.741 Y107.987 E2.32346
G1 X103.961 Y107.792 E2.34301
G1 X103.947 Y108.181 F8400.000
G1 X102.268 Y107.994 F8400.000
G1 X102.140 Y108.139 E2.35585 F600.000
G1 X101.998 Y108.246 E2.36767
G1 X101.865 Y108.135 E2.37922
G1 X101.760 Y108.009 E2.39013
G1 X101.850 Y107.891 E2.40000
G1 X101.999 Y107.763 E2.41306
G1 X102.111 Y107.846 E2.42237
G1 X102.225 Y107.953 E2.43274 F600.000
G1 X102.192 Y107.980 F8400.000
G1 X102.000 Y109.764 F8400.000
G1 X102.111 Y109.846 E2.44193 F600.000
G1 X102.258 Y110.006 E2.45637 F600.000
G1 X102.012 Y110.260 E2.47988
G1 X101.856 Y110.124 E2.49363
G1 X101.761 Y110.006 E2.50374
G1 X101.861 Y109.879 E2.51450
G1 X101.954 Y109.802 E2.52253
G1 X102.115 Y110.063 F8400.000
G1 X103.760 Y110.003 F8400.000
G1 X103.859 Y109.883 E2.53283 F600.000
G1 X104.006 Y109.753 E2.54593
G1 X104.149 Y109.881 E2.55870
G1 X104.252 Y109.998 E2.56909 F600.000
G1 X104.161 Y110.115 E2.57900
G1 X104.009 Y110.261 E2.59300
G1 X103.797 Y110.050 E2.61287
G1 X104.204 Y110.027 F8400.000
G1 X105.749 Y110.002 F8400.000
G1 X106.001 Y109.749 E2.63663 F600.000
G1 X106.152 Y109.882 E2.65000
G1 X106.247 Y110.004 E2.66031 F600.000
G1 X106.154 Y110.122 E2.67030
G1 X106.004 Y110.256 E2.68369
G1 X105.789 Y110.048 E2.70363
G1 X106.200 Y110.029 F8400.000
G1 X107.757 Y110.001 F8400.000
G1 X107.893 Y109.851 E2.71708 F600.000
G1 X108.010 Y109.761 E2.72693
G1 X108.146 Y109.874 E2.73865
G1 X108.249 Y110.004 E2.74969 F600.000
G1 X108.150 Y110.128 E2.76029
G1 X108.009 Y110.246 E2.77253
G1 X107.891 Y110.156 E2.78237
G1 X107.795 Y110.047 E2.79206
G1 X108.179 Y110.036 F8400.000
G1 X108.011 Y111.761 F8400.000
G1 X108.136 Y111.869 E2.80302 F600.000
G1 X108.250 Y111.998 E2.81451 F600.000
G1 X108.168 Y112.111 E2.82380
G1 X108.010 Y112.251 E2.83781
G1 X107.747 Y112.013 E2.86143
G1 X107.963 Y111.798 E2.88176
G1 X108.149 Y112.041 F8400.000
G1 X106.267 Y112.023 F8400.000
G1 X106.004 Y112.262 E2.90541 F600.000
G1 X105.738 Y112.012 E2.92976
G1 X106.006 Y111.754 E2.95454
G1 X106.131 Y111.864 E2.96559
G1 X106.228 Y111.977 E2.97552 F600.000
G1 X106.199 Y111.997 F8400.000
G1 X104.271 Y112.014 F8400.000
G1 X104.007 Y112.263 E2.99964 F600.000
G1 X103.742 Y112.019 E3.02360
G1 X103.862 Y111.881 E3.03576
G1 X104.007 Y111.754 E3.04858
G1 X104.128 Y111.862 E3.05937
G1 X104.230 Y111.970 E3.06927 F600.000
G1 X104.200 Y111.992 F8400.000
G1 X102.269 Y112.013 F8400.000
G1 X102.013 Y112.262 E3.09300 F600.000
G1 X101.744 Y112.012 E3.11744
G1 X101.998 Y111.762 E3.14109
G1 X102.112 Y111.846 E3.15051
G1 X102.228 Y111.969 E3.16181 F600.000
G1 X102.194 Y111.995 F8400.000
G1 X102.011 Y113.743 F8400.000
G1 X102.268 Y114.005 E3.18626 F600.000
G1 X102.110 Y114.166 E3.20124 F600.000
G1 X101.994 Y114.248 E3.21070
G1 X101.743 Y114.006 E3.23396
G1 X101.967 Y113.784 E3.25495
G1 X102.074 Y114.119 F8400.000
G1 F3600.000 E1.25495
G92 E0
G1 X103.786 Y115.954 F8400.000
G1 E2.00000 F3600.000
G1 X104.006 Y115.747 E2.02007 F600.000
G1 X104.273 Y116.002 E2.04467
G1 X104.002 Y116.256 E2.06934 F600.000
G1 X103.743 Y115.995 E2.09385
G1 X104.189 Y115.641 F8400.000
G1 X105.738 Y116.002 F8400.000
G1 X106.001 Y115.742 E2.11842 F600.000
G1 X106.281 Y116.006 E2.14403
G1 X106.003 Y116.255 E2.16886 F600.000
G1 X105.780 Y116.044 E2.18928
G1 X106.205 Y115.641 F8400.000
G1 X107.747 Y116.004 F8400.000
