; generated by Slic3r 1.1.7 on 2015-02-19 at 19:19:57

; perimeters extrusion width = 0.40mm
; infill extrusion width = 0.42mm
; solid infill extrusion width = 0.42mm
; top infill extrusion width = 0.42mm

G21 ; set units to millimeters
M107
;M104 S180,180 ; hot end
;M140 S50 ; hot bed;
;M109; wait till hot
;M190; wait till hot
G90 ; use absolute coordinates
G92 E0
M82 ; use absolute distances for extrusion
M204 S2000
G1 F8400.000 X110.000000 Y110.000000 Z0.900000 E0.000000
;
G1 F3600.000 X110.000000 Y110.000000 Z0.900000 E-2.000000
G92 E0
G1 F8400.000 X110.205556 Y110.876778 Z0.368158 E0.000000
G1 F8400.000 X110.411111 Y111.753556 Z0.647650 E0.000000
G1 F8400.000 X110.616667 Y112.630333 Z0.210881 E0.000000
G1 F8400.000 X110.822222 Y113.507111 Z0.193573 E0.000000
G1 F8400.000 X111.027778 Y114.383889 Z0.240136 E0.000000
G1 F8400.000 X111.233333 Y115.260667 Z0.043459 E0.000000
G1 F8400.000 X111.438889 Y116.137444 Z0.579352 E0.000000
G1 F8400.000 X111.644444 Y117.014222 Z0.259842 E0.000000
G1 F8400.000 X111.850000 Y117.891000 Z0.858237 E0.000000
G1 F3600.000 X111.850000 Y117.891000 Z0.858237 E2.000000
G1 F600.000 X111.999000 Y117.763000 Z0.833846 E2.013050
G1 X112.111000 Y117.846000 Z0.856261 E2.022360
G1 F600.000 X112.268000 Y117.994000 Z0.816459 E2.036720
G1 X112.140000 Y118.139000 Z0.852747 E2.049570
G1 X111.998000 Y118.246000 Z0.828979 E2.061390
G1 X111.865000 Y118.135000 Z0.855702 E2.072940
G1 X111.760000 Y118.009000 Z0.832142 E2.083850
G1 X111.813000 Y117.939000 Z0.853509 E2.089730
G1 F8400.000 X112.146000 Y118.059000 Z0.869878 E2.089730
G1 F8400.000 X111.199000 Y118.035000 Z0.445775 E2.089730
G1 F8400.000 X110.252000 Y118.011000 Z0.825513 E2.089730
G1 F600.000 X110.138000 Y118.141000 Z0.852742 E2.101210
G1 X110.003000 Y118.247000 Z0.828424 E2.112660
G1 X109.875000 Y118.141000 Z0.856841 E2.123720
G1 X109.759000 Y118.010000 Z0.831580 E2.135380
G1 X109.849000 Y117.892000 Z0.858142 E2.145230
G1 X110.002000 Y117.764000 Z0.834373 E2.158540
G1 X110.129000 Y117.862000 Z0.856621 E2.169210
G1 F600.000 X110.215000 Y117.964000 Z0.843510 E2.178070
G1 F8400.000 X110.189000 Y117.981000 Z0.856765 E2.178070
G1 F8400.000 X110.096000 Y117.114500 Z0.404717 E2.178070
G1 F8400.000 X110.003000 Y116.248000 Z0.827873 E2.178070
G1 F600.000 X109.748000 Y116.005000 Z0.825632 E2.201470
G1 X110.003000 Y115.760000 Z0.832231 E2.225050
G1 X110.125000 Y115.860000 Z0.857177 E2.235580
G1 F600.000 X110.266000 Y116.002000 Z0.817666 E2.248870
G1 X110.050000 Y116.211000 Z0.843978 E2.268850
G1 F8400.000 X109.932000 Y115.911000 Z0.884608 E2.268850
G1 F8400.000 X110.834000 Y115.951500 Z0.430336 E2.268850
G1 F8400.000 X111.736000 Y115.992000 Z0.818754 E2.268850
G1 F600.000 X112.013000 Y115.747000 Z0.824894 E2.293420
G1 X112.268000 Y116.002000 Z0.816498 E2.317400
G1 F600.000 X112.115000 Y116.162000 Z0.852177 E2.332130
G1 X111.997000 Y116.246000 Z0.828973 E2.341800
G1 X111.777000 Y116.036000 Z0.839521 E2.362030
G1 F8400.000 X112.111000 Y116.158000 Z0.854782 E2.362030
G1 F8400.000 X112.923000 Y116.079500 Z0.399522 E2.362030
G1 F8400.000 X113.735000 Y116.001000 Z0.818252 E2.362030
G1 F600.000 X114.006000 Y115.747000 Z0.825058 E2.386730
G1 X114.273000 Y116.002000 Z0.813548 E2.411330
G1 F600.000 X114.002000 Y116.256000 Z0.823408 E2.436010
G1 X113.778000 Y116.044000 Z0.839239 E2.456550
G1 F8400.000 X114.189000 Y115.641000 Z0.714366 E2.456550
G1 F8400.000 X114.963500 Y115.821500 Z0.363353 E2.456550
G1 F8400.000 X115.738000 Y116.002000 Z0.819983 E2.456550
G1 F600.000 X116.001000 Y115.742000 Z0.822277 E2.481130
G1 X116.281000 Y116.006000 Z0.808706 E2.506730
G1 F600.000 X116.003000 Y116.255000 Z0.823967 E2.531560
G1 X115.780000 Y116.044000 Z0.840244 E2.551980
G1 F8400.000 X116.205000 Y115.641000 Z0.707076 E2.551980
G1 F3600.000 X116.205000 Y115.641000 Z0.707076 E0.551980
G92 E0
G1 F8400.000 X116.741000 Y115.119333 Z0.000000 E0.000000
G1 F8400.000 X117.277000 Y114.597667 Z0.163326 E0.000000
G1 F8400.000 X117.813000 Y114.076000 Z0.850993 E0.000000
G1 F3600.000 X117.813000 Y114.076000 Z0.850993 E2.000000
G1 F600.000 X117.746000 Y114.007000 Z0.824481 E2.006370
G1 X117.893000 Y113.850000 Z0.858759 E2.020710
G1 X118.010000 Y113.763000 Z0.833724 E2.030440
G1 X118.113000 Y113.848000 Z0.856446 E2.039360
G1 F600.000 X118.266000 Y114.010000 Z0.817548 E2.054130
G1 X118.013000 Y114.249000 Z0.827123 E2.077290
G1 X117.854000 Y114.119000 Z0.856892 E2.090890
G1 F8400.000 X118.204000 Y114.051000 Z0.847190 E2.090890
G1 F8400.000 X117.236000 Y114.032500 Z0.464320 E2.090890
G1 F8400.000 X116.268000 Y114.014000 Z0.816261 E2.090890
G1 F600.000 X116.004000 Y114.262000 Z0.819969 E2.114980
G1 X115.736000 Y114.007000 Z0.818773 E2.139590
G1 X116.005000 Y113.742000 Z0.822248 E2.164670
G1 X116.158000 Y113.893000 Z0.855837 E2.178940
G1 F600.000 X116.228000 Y113.970000 Z0.837453 E2.185880
G1 F8400.000 X116.207000 Y113.985000 Z0.848697 E2.185880
G1 F8400.000 X116.105500 Y113.123500 Z0.404976 E2.185880
G1 F8400.000 X116.004000 Y112.262000 Z0.819969 E2.185880
G1 F600.000 X115.738000 Y112.012000 Z0.819811 E2.210230
G1 X116.006000 Y111.754000 Z0.828940 E2.235010
G1 X116.131000 Y111.864000 Z0.856652 E2.246060
G1 F600.000 X116.267000 Y112.023000 Z0.816436 E2.259980
G1 X116.048000 Y112.221000 Z0.839290 E2.279630
G1 F8400.000 X115.925000 Y111.902000 Z0.881337 E2.279630
G1 F8400.000 X115.098000 Y111.958000 Z0.409582 E2.279630
G1 F8400.000 X114.271000 Y112.014000 Z0.814496 E2.279630
G1 F600.000 X114.007000 Y112.263000 Z0.819351 E2.303750
G1 X113.742000 Y112.019000 Z0.821833 E2.327710
G1 X113.862000 Y111.881000 Z0.859603 E2.339880
G1 X114.007000 Y111.754000 Z0.828924 E2.352690
G1 X114.128000 Y111.862000 Z0.856929 E2.363480
G1 F600.000 X114.230000 Y111.970000 Z0.836418 E2.373380
G1 F8400.000 X114.200000 Y111.992000 Z0.852175 E2.373380
G1 F8400.000 X113.234500 Y112.002500 Z0.464820 E2.373380
G1 F8400.000 X112.269000 Y112.013000 Z0.815708 E2.373380
G1 F600.000 X112.013000 Y112.262000 Z0.819780 E2.397110
G1 X111.744000 Y112.012000 Z0.823236 E2.421550
G1 X111.998000 Y111.762000 Z0.833309 E2.445200
G1 X112.112000 Y111.846000 Z0.855991 E2.454620
G1 F600.000 X112.228000 Y111.969000 Z0.837378 E2.465920
G1 F8400.000 X112.194000 Y111.995000 Z0.854957 E2.465920
G1 F8400.000 X112.102500 Y112.869000 Z0.408024 E2.465920
G1 F8400.000 X112.011000 Y113.743000 Z0.822697 E2.465920
G1 F600.000 X112.268000 Y114.005000 Z0.816472 E2.490370
G1 F600.000 X112.110000 Y114.166000 Z0.851988 E2.505350
G1 X111.994000 Y114.248000 Z0.827840 E2.514810
G1 X111.743000 Y114.006000 Z0.822802 E2.538080
G1 X111.967000 Y113.784000 Z0.843273 E2.559060
G1 F8400.000 X112.074000 Y114.119000 Z0.876007 E2.559060
G1 F8400.000 X112.903000 Y114.061500 Z0.406867 E2.559060
G1 F8400.000 X113.732000 Y114.004000 Z0.816483 E2.559060
G1 F600.000 X114.006000 Y113.742000 Z0.822234 E2.584250
G1 X114.272000 Y114.008000 Z0.814067 E2.609270
G1 F600.000 X114.008000 Y114.267000 Z0.817009 E2.633870
G1 X113.776000 Y114.045000 Z0.838117 E2.655280
G1 F8400.000 X114.179000 Y113.650000 Z0.724999 E2.655280
G1 F3600.000 X114.179000 Y113.650000 Z0.724999 E0.655280
G92 E0
G1 F8400.000 X113.199500 Y113.738500 Z0.367791 E0.000000
G1 F8400.000 X112.220000 Y113.827000 Z0.806605 E0.000000
G1 F8400.000 X111.240500 Y113.915500 Z0.459270 E0.000000
G1 F8400.000 X110.261000 Y114.004000 Z0.820544 E0.000000
G1 F3600.000 X110.261000 Y114.004000 Z0.820544 E2.000000
G1 F600.000 X110.005000 Y114.254000 Z0.824511 E2.023790
G1 X109.743000 Y114.007000 Z0.822786 E2.047760
G1 X110.004000 Y113.765000 Z0.834888 E2.071410
G1 X110.123000 Y113.858000 Z0.857100 E2.081460
G1 F600.000 X110.220000 Y113.961000 Z0.840754 E2.090890
G1 F8400.000 X110.191000 Y113.982000 Z0.855928 E2.090890
G1 F8400.000 X110.097500 Y113.116000 Z0.404781 E2.090890
G1 F8400.000 X110.004000 Y112.250000 Z0.826757 E2.090890
G1 F600.000 X109.744000 Y112.012000 Z0.823236 E2.114350
G1 X110.001000 Y111.762000 Z0.833313 E2.138150
G1 X110.104000 Y111.843000 Z0.856977 E2.146840
G1 F600.000 X110.261000 Y112.013000 Z0.820355 E2.162270
G1 X110.051000 Y112.212000 Z0.843370 E2.181530
G1 F8400.000 X109.877000 Y111.894000 Z0.867832 E2.181530
G1 F8400.000 X109.940500 Y111.071500 Z0.401926 E2.181530
G1 F8400.000 X110.004000 Y110.249000 Z0.827311 E2.181530
G1 F600.000 X109.856000 Y110.124000 Z0.856121 E2.194370
G1 X109.757000 Y110.003000 Z0.830610 E2.204800
G1 X109.999000 Y109.761000 Z0.832778 E2.227550
G1 X110.130000 Y109.863000 Z0.856639 E2.238610
G1 F600.000 X110.252000 Y110.008000 Z0.825584 E2.251210
G1 X110.050000 Y110.210000 Z0.844461 E2.270250
G1 F8400.000 X109.944000 Y109.897000 Z0.883167 E2.270250
G1 F8400.000 X110.852500 Y109.951500 Z0.423467 E2.270250
G1 F8400.000 X111.761000 Y110.006000 Z0.832734 E2.270250
G1 F600.000 X111.861000 Y109.879000 Z0.858694 E2.281010
G1 X112.000000 Y109.764000 Z0.834378 E2.293030
G1 X112.111000 Y109.846000 Z0.856261 E2.302220
G1 F600.000 X112.258000 Y110.006000 Z0.822234 E2.316660
G1 X112.012000 Y110.260000 Z0.820959 E2.340170
G1 X111.798000 Y110.053000 Z0.847870 E2.359970
G1 F8400.000 X112.199000 Y110.044000 Z0.850330 E2.359970
G1 F8400.000 X112.979500 Y110.023500 Z0.399837 E2.359970
G1 F8400.000 X113.760000 Y110.003000 Z0.832231 E2.359970
G1 F600.000 X113.859000 Y109.883000 Z0.859172 E2.370270
G1 X114.006000 Y109.753000 Z0.828390 E2.383370
G1 X114.149000 Y109.881000 Z0.855839 E2.396140
G1 F600.000 X114.252000 Y109.998000 Z0.825658 E2.406530
G1 X114.161000 Y110.115000 Z0.852558 E2.416440
G1 X114.009000 Y110.261000 Z0.820463 E2.430440
G1 X113.797000 Y110.050000 Z0.847782 E2.450320
G1 F8400.000 X114.204000 Y110.027000 Z0.849493 E2.450320
G1 F8400.000 X114.976500 Y110.014500 Z0.400422 E2.450320
G1 F8400.000 X115.749000 Y110.002000 Z0.826216 E2.450320
G1 F600.000 X116.001000 Y109.749000 Z0.826219 E2.474080
G1 X116.152000 Y109.882000 Z0.855052 E2.487440
G1 F600.000 X116.247000 Y110.004000 Z0.828415 E2.497750
G1 X116.154000 Y110.122000 Z0.853169 E2.507750
G1 X116.004000 Y110.256000 Z0.823394 E2.521140
G1 X115.789000 Y110.048000 Z0.844219 E2.541070
G1 F8400.000 X116.200000 Y110.029000 Z0.851217 E2.541070
G1 F8400.000 X116.978500 Y110.015000 Z0.400293 E2.541070
G1 F8400.000 X117.757000 Y110.001000 Z0.830620 E2.541070
G1 F600.000 X117.893000 Y109.851000 Z0.859115 E2.554530
G1 X118.010000 Y109.761000 Z0.832656 E2.564380
G1 X118.146000 Y109.874000 Z0.854828 E2.576090
G1 F600.000 X118.249000 Y110.004000 Z0.827311 E2.587140
G1 X118.150000 Y110.128000 Z0.852810 E2.597730
G1 X118.009000 Y110.246000 Z0.828884 E2.609970
G1 X117.891000 Y110.156000 Z0.856058 E2.619810
G1 X117.795000 Y110.047000 Z0.847201 E2.629500
G1 F8400.000 X118.179000 Y110.036000 Z0.859905 E2.629500
G1 F8400.000 X118.094000 Y109.141000 Z0.413307 E2.629500
G1 F8400.000 X118.009000 Y108.246000 Z0.828884 E2.629500
G1 F600.000 X117.890000 Y108.157000 Z0.855422 E2.639370
G1 X117.744000 Y107.994000 Z0.823369 E2.653940
G1 X118.009000 Y107.763000 Z0.833747 E2.677370
G1 X118.147000 Y107.877000 Z0.855378 E2.689260
G1 F600.000 X118.254000 Y108.014000 Z0.824300 E2.700850
G1 X118.055000 Y108.208000 Z0.844775 E2.719330
G1 F8400.000 X117.974000 Y107.901000 Z0.887172 E2.719330
G1 F8400.000 X117.112000 Y107.956000 Z0.412932 E2.719330
G1 F8400.000 X116.250000 Y108.011000 Z0.826627 E2.719330
G1 F600.000 X116.151000 Y108.130000 Z0.851833 E2.729620
G1 X115.998000 Y108.253000 Z0.825098 E2.742680
G1 X115.737000 Y107.994000 Z0.819367 E2.767160
G1 X116.002000 Y107.751000 Z0.827326 E2.791110
G1 X116.162000 Y107.893000 Z0.854323 E2.805350
G1 F600.000 X116.214000 Y107.963000 Z0.843911 E2.811150
G1 F8400.000 X116.198000 Y107.972000 Z0.852207 E2.811150
G1 F8400.000 X115.235500 Y107.984000 Z0.465041 E2.811150
G1 F8400.000 X114.273000 Y107.996000 Z0.813534 E2.811150
G1 F600.000 X114.007000 Y108.260000 Z0.821076 E2.836090
G1 X113.870000 Y108.138000 Z0.856310 E2.848320
G1 X113.741000 Y107.987000 Z0.821500 E2.861500
G1 X113.961000 Y107.792000 Z0.846623 E2.881040
G1 F8400.000 X113.947000 Y108.181000 Z0.857203 E2.881040
G1 F8400.000 X113.107500 Y108.087500 Z0.404736 E2.881040
G1 F8400.000 X112.268000 Y107.994000 Z0.816459 E2.881040
G1 F600.000 X112.140000 Y108.139000 Z0.852747 E2.893880
G1 X111.998000 Y108.246000 Z0.828979 E2.905710
G1 X111.865000 Y108.135000 Z0.855702 E2.917260
G1 X111.760000 Y108.009000 Z0.832142 E2.928170
G1 X111.850000 Y107.891000 Z0.858237 E2.938040
G1 X111.999000 Y107.763000 Z0.833846 E2.951090
G1 X112.111000 Y107.846000 Z0.856261 E2.960400
G1 F600.000 X112.225000 Y107.953000 Z0.837381 E2.970770
G1 F8400.000 X112.192000 Y107.980000 Z0.855390 E2.970770
G1 F8400.000 X111.222000 Y107.995500 Z0.458352 E2.970770
G1 F8400.000 X110.252000 Y108.011000 Z0.825513 E2.970770
G1 F600.000 X110.138000 Y108.141000 Z0.852742 E2.982250
G1 X110.003000 Y108.247000 Z0.828424 E2.993710
G1 X109.875000 Y108.141000 Z0.856841 E3.004760
G1 X109.759000 Y108.010000 Z0.831580 E3.016420
G1 X109.849000 Y107.892000 Z0.858142 E3.026270
G1 X110.002000 Y107.764000 Z0.834373 E3.039580
G1 X110.129000 Y107.862000 Z0.856621 E3.050250
G1 F600.000 X110.215000 Y107.964000 Z0.843510 E3.059110
G1 F8400.000 X110.189000 Y107.981000 Z0.856765 E3.059110
G1 F8400.000 X110.096000 Y107.114500 Z0.404717 E3.059110
G1 F8400.000 X110.003000 Y106.248000 Z0.827873 E3.059110
G1 F600.000 X109.748000 Y106.005000 Z0.825632 E3.082510
G1 X110.003000 Y105.760000 Z0.832231 E3.106090
G1 X110.125000 Y105.860000 Z0.857177 E3.116620
G1 F600.000 X110.266000 Y106.002000 Z0.817666 E3.129910
G1 X110.050000 Y106.211000 Z0.843978 E3.149890
G1 F8400.000 X109.932000 Y105.911000 Z0.884608 E3.149890
G1 F8400.000 X110.834000 Y105.951500 Z0.430336 E3.149890
G1 F8400.000 X111.736000 Y105.992000 Z0.818754 E3.149890
G1 F600.000 X112.013000 Y105.747000 Z0.824894 E3.174460
G1 X112.268000 Y106.002000 Z0.816498 E3.198440
G1 F600.000 X112.115000 Y106.162000 Z0.852177 E3.213170
G1 X111.997000 Y106.246000 Z0.828973 E3.222840
G1 X111.777000 Y106.036000 Z0.839521 E3.243070
G1 F8400.000 X112.111000 Y106.158000 Z0.854782 E3.243070
G1 F8400.000 X112.923000 Y106.079500 Z0.399522 E3.243070
G1 F8400.000 X113.735000 Y106.001000 Z0.818252 E3.243070
G1 F600.000 X114.006000 Y105.747000 Z0.825058 E3.267770
G1 X114.273000 Y106.002000 Z0.813548 E3.292370
G1 F600.000 X114.002000 Y106.256000 Z0.823408 E3.317050
G1 X113.778000 Y106.044000 Z0.839239 E3.337590
G1 F8400.000 X114.189000 Y105.641000 Z0.714366 E3.337590
G1 F8400.000 X114.963500 Y105.821500 Z0.363353 E3.337590
G1 F8400.000 X115.738000 Y106.002000 Z0.819983 E3.337590
G1 F600.000 X116.001000 Y105.742000 Z0.822277 E3.362170
G1 X116.281000 Y106.006000 Z0.808706 E3.387770
G1 F600.000 X116.003000 Y106.255000 Z0.823967 E3.412600
G1 X115.780000 Y106.044000 Z0.840244 E3.433020
G1 F8400.000 X116.205000 Y105.641000 Z0.707076 E3.433020
G1 F8400.000 X116.976000 Y105.822500 Z0.362838 E3.433020
G1 F8400.000 X117.747000 Y106.004000 Z0.825083 E3.433020
G1 F600.000 X118.009000 Y105.756000 Z0.829977 E3.457050
G1 X118.142000 Y105.873000 Z0.855898 E3.468880
G1 F600.000 X118.269000 Y106.007000 Z0.815856 E3.481160
G1 X118.009000 Y106.246000 Z0.828884 E3.504620
G1 X117.891000 Y106.158000 Z0.855314 E3.514430
G1 X117.788000 Y106.048000 Z0.843735 E3.524470
G1 F8400.000 X118.190000 Y106.052000 Z0.853442 E3.524470
G1 F3600.000 X118.190000 Y106.052000 Z0.853442 E1.524470
G92 E0
G1 F8400.000 X117.549333 Y105.372667 Z0.341230 E0.000000
G1 F8400.000 X116.908667 Y104.693333 Z0.017542 E0.000000
G1 F8400.000 X116.268000 Y104.014000 Z0.816261 E0.000000
G1 F3600.000 X116.268000 Y104.014000 Z0.816261 E2.000000
G1 F600.000 X116.004000 Y104.262000 Z0.819969 E2.024090
G1 X115.736000 Y104.007000 Z0.818773 E2.048700
G1 X116.005000 Y103.742000 Z0.822248 E2.073780
G1 X116.158000 Y103.893000 Z0.855837 E2.088050
G1 F600.000 X116.228000 Y103.970000 Z0.837453 E2.094980
G1 F8400.000 X116.207000 Y103.985000 Z0.848697 E2.094980
G1 F3600.000 X116.207000 Y103.985000 Z0.848697 E0.094980
G92 E0
G1 F8400.000 X115.561667 Y103.328000 Z0.319521 E0.000000
G1 F8400.000 X114.916333 Y102.671000 Z0.030651 E0.000000
G1 F8400.000 X114.271000 Y102.014000 Z0.814496 E0.000000
G1 F3600.000 X114.271000 Y102.014000 Z0.814496 E2.000000
